X: 35247
T: Roscommon, The
R: reel
M: 4/4
K: Edorian
EFGA BAGB|AFFF DFAF|EFGA BAGB|AFDF FEED|
EGGA BAGB|AFFA dFAF|EGGA BGBd|AFDF GABd||
eBBB effe|faaa bgaf|eBBe efge|fdgf efgf|
eBBd efge|fafa bgef|ggga fffe|dBAF EFGA||
B2 BA BBBd|AFFF DFAF|EFGB B2 dB|AFDF FEED|
GBAB dBGB|AFdA DFAF|EFGA BABd|AFdF FEED||

